X: 33360
T: Queen Of The Fairies
R: hornpipe
M: 4/4
K: Gmajor
|:AG|"Am"E2 A2 AB cd|"C"e2a2"G"g3 d|"C" (3efe "G"d2 "C"(3cdc "G"B2|"Am"ABAG E2 D2|
"Am"E2 A2 AB cd|"C" e2a2 "G"g3 d|"C" e2 de "G"g2 de|1 "Am"B2 A2 A2:|2 "Am"B2 A2 A2 AG||
|:"Am" E2 A2 c2 A2|"Am" e3 B cBAG|"C"E2 G2 "G"D2 G2|"C" E2 DE "G"GEDB|
"Am"E2 A2 c2 A2|"Am" e3 d cBAG|"C"E2 DE "G"G2 B2|1 "Am"c2 A2 A2 AG:|2 "Am"c2 A2 A2||

